;FLAVOR:RepRap
;TIME:11762
;Filament used: 11.0851m
;Layer height: 0.2
;Generated with Cura_SteamEngine 2.5.0-twosilly
M190 S50
M104 S210
M109 S210
G28 ;Home
G1 Z15.0 F6000 ;Move the platform down 15mm
;Prime the extruder
G92 E0
G1 F200 E10
G92 E0
;LAYER_COUNT:180
;LAYER:0
M107
G0 F2700 X129.577 Y104.481 Z0.3
;TYPE:SKIRT
G1 F1200 X129.578 Y125.52 E1.04702
G1 X129.568 Y125.719 E1.05693
G1 X170.437 Y125.719 E3.0908
G1 X170.422 Y125.52 E3.10073
G1 X170.422 Y104.481 E4.14774
G1 X129.577 Y104.481 E6.18042
G0 F2700 X129.178 Y104.082
G1 F1200 X129.179 Y125.52 E7.24729
G1 X129.148 Y126.118 E7.27709
G1 X170.855 Y126.118 E9.35266
G1 X170.821 Y125.52 E9.38246
G1 X170.821 Y104.082 E10.44934
G1 X129.178 Y104.082 E12.52172
G0 F2700 X128.779 Y103.683
G1 F1200 X128.78 Y125.52 E13.60845
G1 X128.74 Y126.266 E13.64563
G1 X128.699 Y126.517 E13.65828
G1 X171.301 Y126.517 E15.77839
G1 X171.238 Y126.023 E15.80318
G1 X171.22 Y125.52 E15.82822
G1 X171.22 Y103.683 E16.91495
G1 X128.779 Y103.683 E19.02705
G0 F2700 X128.38 Y103.284
G1 F1200 X128.381 Y125.52 E20.13363
G1 X128.341 Y126.244 E20.16972
G1 X128.229 Y126.916 E20.20362
G1 X171.777 Y126.916 E22.37081
G1 X171.681 Y126.423 E22.39581
G1 X171.619 Y125.52 E22.44085
G1 X171.619 Y103.284 E23.54743
G1 X128.38 Y103.284 E25.69924
G0 F2700 X127.981 Y102.885
G1 F1200 X127.982 Y125.52 E26.82569
G1 X127.942 Y126.222 E26.86068
G1 X127.823 Y126.915 E26.89567
G1 X127.706 Y127.315 E26.91641
G1 X172.291 Y127.315 E29.1352
G1 X172.149 Y126.784 E29.16256
G1 X172.044 Y126.089 E29.19754
G1 X172.018 Y125.52 E29.22588
G1 X172.018 Y102.885 E30.35233
G1 X127.981 Y102.885 E32.54385
G0 F2700 X127.582 Y102.486
G1 F1200 X127.583 Y125.52 E33.69015
G1 X127.543 Y126.199 E33.72399
G1 X127.424 Y126.868 E33.75781
G1 X127.227 Y127.519 E33.79166
G1 X127.142 Y127.714 E33.80224
G1 X172.851 Y127.714 E36.07697
G1 X172.638 Y127.103 E36.10918
G1 X172.49 Y126.439 E36.14303
G1 X172.417 Y125.52 E36.18891
G1 X172.417 Y102.486 E37.33521
G1 X127.582 Y102.486 E39.56644
G0 F2700 X127.183 Y102.087
G1 F1200 X127.184 Y125.52 E40.7326
G1 X127.144 Y126.175 E40.76525
G1 X127.025 Y126.82 E40.7979
G1 X126.828 Y127.446 E40.83055
G1 X126.556 Y128.043 E40.8632
G1 X126.513 Y128.113 E40.86729
G1 X173.49 Y128.113 E43.20512
G1 X173.41 Y127.978 E43.21293
G1 X173.146 Y127.377 E43.2456
G1 X172.958 Y126.749 E43.27822
G1 X172.848 Y126.102 E43.31088
G1 X172.816 Y125.52 E43.33989
G1 X172.816 Y102.087 E44.50605
G1 X127.183 Y102.087 E46.77699
G0 F2700 X126.784 Y101.688
G1 F1200 X126.785 Y125.52 E47.963
G1 X126.745 Y126.15 E47.99442
G1 X126.626 Y126.77 E48.02584
G1 X126.429 Y127.37 E48.05727
G1 X126.158 Y127.94 E48.08867
G1 X125.818 Y128.472 E48.12009
G1 X125.785 Y128.512 E48.12268
G1 X174.223 Y128.512 E50.53322
G1 X173.97 Y128.159 E50.55483
G1 X173.671 Y127.603 E50.58625
G1 X173.444 Y127.014 E50.61766
G1 X173.293 Y126.401 E50.64908
G1 X173.215 Y125.52 E50.69309
G1 X173.215 Y101.688 E51.8791
G1 X126.784 Y101.688 E54.18976
G0 F2700 X126.385 Y101.289
G1 F1200 X126.386 Y125.52 E55.39563
G1 X126.346 Y126.124 E55.42576
G1 X126.227 Y126.718 E55.4559
G1 X126.031 Y127.291 E55.48604
G1 X125.761 Y127.833 E55.51618
G1 X125.422 Y128.335 E55.54632
G1 X125.019 Y128.787 E55.57646
G1 X124.876 Y128.911 E55.58588
G1 X175.126 Y128.911 E58.08659
G1 X174.936 Y128.742 E58.09925
G1 X174.54 Y128.284 E58.12938
G1 X174.208 Y127.778 E58.15949
G1 X173.945 Y127.232 E58.18965
G1 X173.757 Y126.656 E58.21981
G1 X173.646 Y126.061 E58.24993
G1 X173.614 Y125.52 E58.2769
G1 X173.614 Y101.289 E59.48277
G1 X126.385 Y101.289 E61.83314
G0 F2700 X125.986 Y100.89
G1 F1200 X125.987 Y125.52 E63.05886
G1 X125.947 Y126.097 E63.08765
G1 X125.828 Y126.663 E63.11643
G1 X125.632 Y127.208 E63.14525
G1 X125.363 Y127.72 E63.17404
G1 X125.026 Y128.19 E63.20282
G1 X124.627 Y128.61 E63.23165
G1 X124.175 Y128.97 E63.2604
G1 X123.677 Y129.265 E63.28921
G1 X123.569 Y129.31 E63.29503
G1 X176.429 Y129.31 E65.92563
G1 X176.003 Y129.086 E65.94959
G1 X175.533 Y128.749 E65.97837
G1 X175.113 Y128.35 E66.0072
G1 X174.753 Y127.897 E66.03599
G1 X174.458 Y127.399 E66.0648
G1 X174.235 Y126.866 E66.09355
G1 X174.087 Y126.306 E66.12238
G1 X174.013 Y125.52 E66.16167
G1 X174.013 Y100.89 E67.38739
G1 X125.986 Y100.89 E69.77748
G0 F2700 X125.587 Y100.491
G1 F1200 X125.588 Y125.52 E71.02306
G1 X125.548 Y126.069 E71.05045
G1 X125.429 Y126.606 E71.07782
G1 X125.234 Y127.121 E71.10523
G1 X124.966 Y127.601 E71.13259
G1 X124.631 Y128.038 E71.15999
G1 X124.236 Y128.422 E71.1874
G1 X123.791 Y128.744 E71.21474
G1 X123.303 Y128.999 E71.24214
G1 X122.783 Y129.181 E71.26956
G1 X122.243 Y129.285 E71.29692
G1 X121.797 Y129.311 E71.31916
G1 X120.203 Y129.311 E71.39848
G1 X119.654 Y129.271 E71.42588
G1 X119.117 Y129.152 E71.45325
G1 X118.602 Y128.957 E71.48065
G1 X118.122 Y128.689 E71.50801
G1 X117.685 Y128.354 E71.53541
G1 X117.301 Y127.959 E71.56283
G1 X116.978 Y127.513 E71.59023
G1 X116.724 Y127.026 E71.61757
G1 X116.542 Y126.506 E71.64499
G1 X116.438 Y125.966 E71.67235
G1 X116.412 Y125.52 E71.69459
G1 X116.412 Y98.15 E73.05667
G1 X116.238 Y97.764 E73.07774
G1 X116.088 Y97.235 E73.1051
G1 X116.009 Y96.466 E73.14357
G1 X116.009 Y62.534 E74.83222
G1 X116.049 Y61.985 E74.85961
G1 X116.168 Y61.448 E74.88698
G1 X116.363 Y60.933 E74.91439
G1 X116.631 Y60.453 E74.94175
G1 X117.119 Y59.853 E74.98023
G1 X117.353 Y59.619 E74.9967
G1 X117.77 Y59.259 E75.02412
G1 X118.234 Y58.964 E75.05148
G1 X118.736 Y58.738 E75.07888
G1 X119.265 Y58.588 E75.10624
G1 X120.034 Y58.509 E75.14471
G1 X168.466 Y58.509 E77.55495
G1 X168.497 Y58.466 E77.55759
G1 X168.881 Y58.071 E77.58501
G1 X169.318 Y57.737 E77.61238
G1 X169.799 Y57.469 E77.63978
G1 X170.313 Y57.274 E77.66714
G1 X170.851 Y57.155 E77.69456
G1 X171.398 Y57.115 E77.72186
G1 X173.784 Y57.115 E77.8406
G1 X174.333 Y57.155 E77.86799
G1 X174.87 Y57.274 E77.89536
G1 X175.385 Y57.469 E77.92277
G1 X175.865 Y57.737 E77.95013
G1 X176.302 Y58.072 E77.97753
G1 X176.686 Y58.467 E78.00494
G1 X176.716 Y58.509 E78.00751
G1 X179.966 Y58.509 E78.16925
G1 X180.515 Y58.549 E78.19664
G1 X181.052 Y58.668 E78.22402
G1 X181.567 Y58.863 E78.25142
G1 X182.047 Y59.131 E78.27878
G1 X182.647 Y59.619 E78.31727
G1 X182.881 Y59.853 E78.33374
G1 X183.241 Y60.27 E78.36115
G1 X183.536 Y60.734 E78.38852
G1 X183.762 Y61.236 E78.41591
G1 X183.912 Y61.765 E78.44328
G1 X183.991 Y62.534 E78.48175
G1 X183.991 Y96.466 E80.17039
G1 X183.951 Y97.015 E80.19778
G1 X183.832 Y97.552 E80.22516
G1 X183.637 Y98.067 E80.25256
G1 X183.588 Y98.155 E80.25757
G1 X183.588 Y125.52 E81.61941
G1 X183.548 Y126.069 E81.6468
G1 X183.429 Y126.606 E81.67417
G1 X183.234 Y127.121 E81.70158
G1 X182.966 Y127.601 E81.72893
G1 X182.631 Y128.038 E81.75634
G1 X182.236 Y128.422 E81.78375
G1 X181.79 Y128.745 E81.81116
G1 X181.303 Y128.999 E81.83849
G1 X180.783 Y129.181 E81.86591
G1 X180.243 Y129.285 E81.89328
G1 X179.797 Y129.311 E81.91551
G1 X178.203 Y129.311 E81.99484
G1 X177.654 Y129.271 E82.02223
G1 X177.117 Y129.152 E82.0496
G1 X176.602 Y128.957 E82.07701
G1 X176.122 Y128.689 E82.10436
G1 X175.685 Y128.354 E82.13177
G1 X175.301 Y127.959 E82.15918
G1 X174.978 Y127.513 E82.18659
G1 X174.724 Y127.026 E82.21392
G1 X174.542 Y126.506 E82.24134
G1 X174.438 Y125.966 E82.26871
G1 X174.412 Y125.52 E82.29094
G1 X174.412 Y100.491 E83.53652
G1 X125.587 Y100.491 E85.96632
G0 F2700 X125.188 Y100.092
G1 F1200 X125.189 Y125.52 E87.23176
G1 X125.149 Y126.039 E87.25766
G1 X125.03 Y126.546 E87.28358
G1 X124.835 Y127.028 E87.30945
G1 X124.569 Y127.475 E87.33534
G1 X124.237 Y127.876 E87.36125
G1 X123.848 Y128.222 E87.38715
G1 X123.41 Y128.504 E87.41308
G1 X122.934 Y128.716 E87.43901
G1 X122.432 Y128.852 E87.46489
G1 X121.797 Y128.912 E87.49664
G1 X120.203 Y128.912 E87.57596
G1 X119.684 Y128.872 E87.60187
G1 X119.177 Y128.753 E87.62778
G1 X118.695 Y128.558 E87.65366
G1 X118.247 Y128.292 E87.67959
G1 X117.846 Y127.96 E87.7055
G1 X117.501 Y127.57 E87.73141
G1 X117.219 Y127.133 E87.75729
G1 X117.007 Y126.657 E87.78322
G1 X116.871 Y126.155 E87.80911
G1 X116.811 Y125.52 E87.84085
G1 X116.811 Y98.064 E89.20721
G1 X116.788 Y98.027 E89.20938
G1 X116.585 Y97.548 E89.23527
G1 X116.457 Y97.043 E89.26119
G1 X116.408 Y96.466 E89.29001
G1 X116.408 Y62.534 E90.97865
G1 X116.448 Y62.015 E91.00456
G1 X116.567 Y61.508 E91.03047
G1 X116.762 Y61.026 E91.05635
G1 X117.028 Y60.578 E91.08228
G1 X117.401 Y60.135 E91.1111
G1 X117.635 Y59.901 E91.12757
G1 X118.031 Y59.563 E91.15348
G1 X118.473 Y59.288 E91.17938
G1 X118.952 Y59.085 E91.20527
G1 X119.457 Y58.957 E91.2312
G1 X120.034 Y58.908 E91.26002
G1 X168.669 Y58.908 E93.68036
G1 X168.839 Y58.68 E93.69451
G1 X169.21 Y58.314 E93.72045
G1 X169.632 Y58.01 E93.74633
G1 X170.096 Y57.774 E93.77224
G1 X170.591 Y57.611 E93.79817
G1 X171.104 Y57.527 E93.82404
G1 X171.398 Y57.514 E93.83869
G1 X173.784 Y57.514 E93.95743
G1 X174.303 Y57.554 E93.98333
G1 X174.81 Y57.673 E94.00925
G1 X175.292 Y57.868 E94.03513
G1 X175.74 Y58.134 E94.06106
G1 X176.141 Y58.466 E94.08696
G1 X176.486 Y58.856 E94.11288
G1 X176.52 Y58.908 E94.11597
G1 X179.966 Y58.908 E94.28746
G1 X180.485 Y58.948 E94.31336
G1 X180.992 Y59.067 E94.33928
G1 X181.474 Y59.262 E94.36516
G1 X181.922 Y59.528 E94.39109
G1 X182.365 Y59.901 E94.41991
G1 X182.599 Y60.135 E94.43637
G1 X182.937 Y60.531 E94.46228
G1 X183.212 Y60.973 E94.48819
G1 X183.415 Y61.452 E94.51408
G1 X183.543 Y61.957 E94.54001
G1 X183.592 Y62.534 E94.56882
G1 X183.592 Y96.466 E96.25747
G1 X183.552 Y96.985 E96.28337
G1 X183.433 Y97.492 E96.30929
G1 X183.238 Y97.974 E96.33516
G1 X183.189 Y98.057 E96.33996
G1 X183.189 Y125.52 E97.70667
G1 X183.149 Y126.039 E97.73258
G1 X183.03 Y126.546 E97.75849
G1 X182.835 Y127.028 E97.78437
G1 X182.569 Y127.476 E97.8103
G1 X182.237 Y127.877 E97.8362
G1 X181.847 Y128.222 E97.86212
G1 X181.41 Y128.504 E97.888
G1 X180.934 Y128.716 E97.91393
G1 X180.432 Y128.852 E97.93981
G1 X179.797 Y128.912 E97.97156
G1 X178.203 Y128.912 E98.05088
G1 X177.684 Y128.872 E98.07679
G1 X177.177 Y128.753 E98.1027
G1 X176.695 Y128.558 E98.12858
G1 X176.247 Y128.292 E98.15451
G1 X175.846 Y127.96 E98.18042
G1 X175.501 Y127.57 E98.20633
G1 X175.219 Y127.133 E98.23221
G1 X175.007 Y126.657 E98.25814
G1 X174.871 Y126.155 E98.28403
G1 X174.811 Y125.52 E98.31577
G1 X174.811 Y100.092 E99.5812
G1 X125.188 Y100.092 E102.05072
G0 F2700 X124.789 Y99.693
G1 F1200 X124.79 Y125.52 E103.33601
G1 X124.75 Y126.007 E103.36033
G1 X124.631 Y126.481 E103.38465
G1 X124.437 Y126.93 E103.40899
G1 X124.172 Y127.341 E103.43333
G1 X123.844 Y127.704 E103.45767
G1 X123.461 Y128.008 E103.48201
G1 X123.034 Y128.245 E103.50631
G1 X122.574 Y128.41 E103.53063
G1 X122.093 Y128.498 E103.55497
G1 X121.797 Y128.513 E103.56971
G1 X120.203 Y128.513 E103.64904
G1 X119.716 Y128.473 E103.67336
G1 X119.241 Y128.354 E103.69773
G1 X118.793 Y128.16 E103.72202
G1 X118.382 Y127.895 E103.74636
G1 X118.019 Y127.567 E103.77071
G1 X117.715 Y127.184 E103.79504
G1 X117.478 Y126.757 E103.81934
G1 X117.313 Y126.297 E103.84366
G1 X117.225 Y125.816 E103.868
G1 X117.21 Y125.52 E103.88275
G1 X117.21 Y97.947 E105.25493
G1 X117.116 Y97.79 E105.26404
G1 X116.936 Y97.336 E105.28834
G1 X116.833 Y96.858 E105.31268
G1 X116.807 Y96.466 E105.33223
G1 X116.807 Y62.534 E107.02087
G1 X116.847 Y62.047 E107.04519
G1 X116.966 Y61.572 E107.06956
G1 X117.16 Y61.124 E107.09385
G1 X117.425 Y60.713 E107.11819
G1 X117.684 Y60.418 E107.13773
G1 X117.918 Y60.184 E107.15419
G1 X118.29 Y59.867 E107.17852
G1 X118.71 Y59.616 E107.20287
G1 X119.164 Y59.436 E107.22717
G1 X119.642 Y59.333 E107.2515
G1 X120.034 Y59.307 E107.27106
G1 X168.87 Y59.307 E109.7014
G1 X168.882 Y59.285 E109.70265
G1 X169.179 Y58.897 E109.72697
G1 X169.536 Y58.563 E109.7513
G1 X169.942 Y58.291 E109.77562
G1 X170.388 Y58.089 E109.79998
G1 X170.86 Y57.962 E109.82431
G1 X171.398 Y57.913 E109.85119
G1 X173.784 Y57.913 E109.96993
G1 X174.271 Y57.953 E109.99425
G1 X174.746 Y58.072 E110.01862
G1 X175.194 Y58.266 E110.04291
G1 X175.605 Y58.531 E110.06725
G1 X175.968 Y58.859 E110.0916
G1 X176.272 Y59.242 E110.11593
G1 X176.307 Y59.307 E110.11961
G1 X179.966 Y59.307 E110.3017
G1 X180.453 Y59.347 E110.32601
G1 X180.928 Y59.466 E110.35038
G1 X181.376 Y59.66 E110.37468
G1 X181.787 Y59.925 E110.39902
G1 X182.082 Y60.184 E110.41855
G1 X182.316 Y60.418 E110.43502
G1 X182.633 Y60.79 E110.45934
G1 X182.884 Y61.21 E110.48369
G1 X183.064 Y61.664 E110.508
G1 X183.167 Y62.142 E110.53233
G1 X183.193 Y62.534 E110.55188
G1 X183.193 Y96.466 E112.24052
G1 X183.153 Y96.953 E112.26484
G1 X183.034 Y97.428 E112.28921
G1 X182.84 Y97.876 E112.31351
G1 X182.79 Y97.954 E112.31812
G1 X182.79 Y125.52 E113.68995
G1 X182.75 Y126.007 E113.71427
G1 X182.631 Y126.482 E113.73864
G1 X182.437 Y126.93 E113.76293
G1 X182.172 Y127.341 E113.78727
G1 X181.844 Y127.704 E113.81162
G1 X181.461 Y128.008 E113.83595
G1 X181.034 Y128.245 E113.86026
G1 X180.574 Y128.41 E113.88458
G1 X180.093 Y128.498 E113.90891
G1 X179.797 Y128.513 E113.92366
G1 X178.203 Y128.513 E114.00299
G1 X177.716 Y128.473 E114.0273
G1 X177.241 Y128.354 E114.05167
G1 X176.793 Y128.16 E114.07597
G1 X176.382 Y127.895 E114.10031
G1 X176.019 Y127.567 E114.12465
G1 X175.715 Y127.184 E114.14899
G1 X175.478 Y126.757 E114.17329
G1 X175.313 Y126.297 E114.19761
G1 X175.225 Y125.816 E114.22195
G1 X175.21 Y125.52 E114.23669
G1 X175.21 Y99.693 E115.52199
G1 X124.789 Y99.693 E118.03121
G0 F2700 X124.39 Y99.294
G1 F1200 X124.391 Y125.52 E119.33636
G1 X124.351 Y125.973 E119.35899
G1 X124.233 Y126.413 E119.38166
G1 X124.039 Y126.825 E119.40433
G1 X123.777 Y127.196 E119.42693
G1 X123.453 Y127.517 E119.44963
G1 X123.079 Y127.775 E119.47224
G1 X122.665 Y127.965 E119.49491
G1 X122.224 Y128.079 E119.51758
G1 X121.797 Y128.114 E119.5389
G1 X120.203 Y128.114 E119.61822
G1 X119.75 Y128.074 E119.64085
G1 X119.31 Y127.956 E119.66352
G1 X118.898 Y127.762 E119.68619
G1 X118.527 Y127.5 E119.70879
G1 X118.206 Y127.176 E119.73149
G1 X117.948 Y126.802 E119.7541
G1 X117.758 Y126.388 E119.77677
G1 X117.644 Y125.947 E119.79944
G1 X117.609 Y125.52 E119.82076
G1 X117.609 Y97.839 E121.19832
G1 X117.447 Y97.557 E121.2145
G1 X117.292 Y97.129 E121.23715
G1 X117.206 Y96.466 E121.27042
G1 X117.206 Y62.534 E122.95907
G1 X117.246 Y62.081 E122.9817
G1 X117.364 Y61.641 E123.00437
G1 X117.558 Y61.229 E123.02703
G1 X117.966 Y60.7 E123.06028
G1 X118.2 Y60.466 E123.07675
G1 X118.549 Y60.173 E123.09942
G1 X118.943 Y59.947 E123.12203
G1 X119.371 Y59.792 E123.14468
G1 X120.034 Y59.706 E123.17795
G1 X169.11 Y59.706 E125.62024
G1 X169.235 Y59.475 E125.63331
G1 X169.518 Y59.119 E125.65595
G1 X169.859 Y58.818 E125.67858
G1 X170.248 Y58.581 E125.70125
G1 X170.672 Y58.416 E125.72389
G1 X171.118 Y58.327 E125.74653
G1 X171.398 Y58.312 E125.76048
G1 X173.784 Y58.312 E125.87922
G1 X174.237 Y58.352 E125.90185
G1 X174.677 Y58.47 E125.92452
G1 X175.089 Y58.664 E125.94718
G1 X175.46 Y58.926 E125.96979
G1 X175.781 Y59.25 E125.99249
G1 X176.039 Y59.624 E126.0151
G1 X176.079 Y59.706 E126.01964
G1 X179.966 Y59.706 E126.21308
G1 X180.419 Y59.746 E126.23571
G1 X180.859 Y59.864 E126.25838
G1 X181.271 Y60.058 E126.28104
G1 X181.8 Y60.466 E126.31429
G1 X182.034 Y60.7 E126.33076
G1 X182.327 Y61.049 E126.35343
G1 X182.553 Y61.443 E126.37604
G1 X182.708 Y61.871 E126.39869
G1 X182.794 Y62.534 E126.43196
G1 X182.794 Y96.466 E128.1206
G1 X182.754 Y96.919 E128.14323
G1 X182.636 Y97.359 E128.16591
G1 X182.442 Y97.771 E128.18857
G1 X182.391 Y97.837 E128.19272
G1 X182.391 Y125.52 E129.57038
G1 X182.351 Y125.973 E129.59301
G1 X182.233 Y126.413 E129.61568
G1 X182.039 Y126.825 E129.63834
G1 X181.777 Y127.196 E129.66094
G1 X181.453 Y127.517 E129.68364
G1 X181.079 Y127.775 E129.70625
G1 X180.665 Y127.965 E129.72892
G1 X180.224 Y128.079 E129.75159
G1 X179.797 Y128.114 E129.77291
G1 X178.203 Y128.114 E129.85224
G1 X177.75 Y128.074 E129.87487
G1 X177.31 Y127.956 E129.89754
G1 X176.898 Y127.762 E129.9202
G1 X176.527 Y127.5 E129.9428
G1 X176.206 Y127.176 E129.9655
G1 X175.948 Y126.802 E129.98811
G1 X175.758 Y126.388 E130.01078
G1 X175.644 Y125.947 E130.03345
G1 X175.609 Y125.52 E130.05477
G1 X175.609 Y99.294 E131.35992
G1 X124.39 Y99.294 E133.90886
G0 F2700 X123.991 Y98.895
G1 F1200 X123.992 Y125.52 E135.23386
G1 X123.952 Y125.937 E135.25471
