;FLAVOR:RepRap
;TIME:9993
;Filament used: 8.58176m
;Layer height: 0.2
;Generated with Cura_SteamEngine 2.5.0-twosilly
M190 S50
M104 S210
M109 S210
G28 ;Home
G1 Z15.0 F6000 ;Move the platform down 15mm
;Prime the extruder
G92 E0
G1 F200 E10
G92 E0
;LAYER_COUNT:190
;LAYER:0
M107
G0 F2700 X81.271 Y75.537 Z0.3
;TYPE:SKIRT
G1 F1200 X81.388 Y75.42 E0.00823
G1 X81.973 Y74.891 E0.04748
G1 X82.609 Y74.425 E0.08672
G1 X83.289 Y74.025 E0.12598
G1 X84.006 Y73.695 E0.16526
G1 X84.752 Y73.441 E0.20448
G1 X85.52 Y73.262 E0.24373
G1 X86.303 Y73.163 E0.283
G1 X86.887 Y73.141 E0.31209
G1 X89.653 Y73.14 E0.44974
G1 X90.441 Y73.18 E0.489
G1 X91.221 Y73.299 E0.52827
G1 X91.984 Y73.496 E0.56749
G1 X92.724 Y73.77 E0.60676
G1 X93.432 Y74.118 E0.64602
G1 X94.101 Y74.535 E0.68525
G1 X94.725 Y75.018 E0.72452
G1 X95.158 Y75.419 E0.75389
G1 X95.275 Y75.536 E0.76212
G1 X95.804 Y76.121 E0.80137
G1 X96.27 Y76.757 E0.84061
G1 X96.67 Y77.437 E0.87987
G1 X97 Y78.154 E0.91915
G1 X97.254 Y78.9 E0.95837
G1 X97.433 Y79.668 E0.99761
G1 X97.532 Y80.451 E1.03689
G1 X97.554 Y81.038 E1.06612
G1 X97.554 Y122.206 E3.11487
G1 X100.584 Y121.472 E3.27002
G1 X101.021 Y121.379 E3.29225
G1 X104.17 Y120.805 E3.45154
G1 X104.673 Y120.73 E3.47685
G1 X107.567 Y120.396 E3.62183
G1 X108.118 Y120.352 E3.64934
G1 X110.81 Y120.234 E3.78344
G1 X111.445 Y120.233 E3.81504
G1 X114.305 Y120.341 E3.95747
G1 X114.889 Y120.385 E3.98661
G1 X117.688 Y120.703 E4.1268
G1 X118.174 Y120.774 E4.15125
G1 X121.206 Y121.314 E4.30451
G1 X121.609 Y121.396 E4.32498
G1 X124.976 Y122.181 E4.49703
G1 X125.332 Y122.273 E4.51533
G1 X125.992 Y122.46 E4.54947
G1 X125.992 Y89.065 E6.21138
G1 X125.821 Y88.933 E6.22213
G1 X125.388 Y88.532 E6.2515
G1 X125.271 Y88.415 E6.25974
G1 X124.742 Y87.83 E6.29899
G1 X124.276 Y87.194 E6.33823
G1 X123.876 Y86.514 E6.37749
G1 X123.546 Y85.797 E6.41677
G1 X123.292 Y85.051 E6.45599
G1 X123.113 Y84.283 E6.49523
G1 X123.014 Y83.5 E6.53451
G1 X122.992 Y82.913 E6.56374
G1 X122.992 Y81.049 E6.6565
G1 X123.032 Y80.261 E6.69577
G1 X123.151 Y79.482 E6.73499
G1 X123.349 Y78.718 E6.77426
G1 X123.623 Y77.979 E6.81349
G1 X123.971 Y77.271 E6.85275
G1 X124.388 Y76.601 E6.89202
G1 X124.871 Y75.978 E6.93125
G1 X125.271 Y75.547 E6.96051
G1 X125.388 Y75.43 E6.96875
G1 X125.973 Y74.901 E7.008
G1 X126.609 Y74.435 E7.04723
G1 X127.289 Y74.035 E7.0865
G1 X128.006 Y73.705 E7.12578
G1 X128.752 Y73.451 E7.16499
G1 X129.52 Y73.272 E7.20424
G1 X130.303 Y73.173 E7.24351
G1 X130.889 Y73.151 E7.2727
G1 X136.655 Y73.15 E7.55964
G1 X137.442 Y73.19 E7.59886
G1 X138.222 Y73.309 E7.63813
G1 X138.689 Y73.43 E7.66213
G1 X138.772 Y73.206 E7.67402
G1 X139.12 Y72.498 E7.71328
G1 X139.718 Y71.582 E7.76772
G1 X140.018 Y71.186 E7.79245
G1 X140.525 Y70.583 E7.83165
G1 X141.091 Y70.033 E7.87093
G1 X141.71 Y69.544 E7.91019
G1 X142.375 Y69.12 E7.94943
G1 X142.924 Y68.836 E7.98019
G1 X143.14 Y68.735 E7.99206
G1 X143.871 Y68.438 E8.03133
G1 X144.627 Y68.216 E8.07054
G1 X145.403 Y68.072 E8.10982
G1 X146.427 Y68.003 E8.16089
G1 X168.628 Y67.978 E9.26574
G1 X169.416 Y68.017 E9.305
G1 X170.269 Y68.151 E9.34797
G1 X170.558 Y68.213 E9.36268
G1 X171.32 Y68.417 E9.40194
G1 X172.057 Y68.698 E9.44119
G1 X172.762 Y69.051 E9.48042
G1 X173.716 Y69.689 E9.53754
G1 X174.004 Y69.914 E9.55573
G1 X174.6 Y70.431 E9.59499
G1 X175.141 Y71.005 E9.63425
G1 X175.621 Y71.631 E9.6735
G1 X176.056 Y72.341 E9.71494
G1 X176.18 Y72.57 E9.7279
G1 X176.52 Y73.282 E9.76717
G1 X176.786 Y74.024 E9.80639
G1 X176.976 Y74.79 E9.84567
G1 X177.087 Y75.571 E9.88493
G1 X177.119 Y76.27 E9.91975
G1 X177.152 Y123.5 E12.27017
G1 X177.113 Y124.287 E12.30939
G1 X176.925 Y125.37 E12.36409
G1 X176.844 Y125.698 E12.3809
G1 X176.616 Y126.454 E12.4202
G1 X176.313 Y127.182 E12.45944
G1 X175.938 Y127.876 E12.4987
G1 X175.495 Y128.528 E12.53792
G1 X175.17 Y128.929 E12.56361
G1 X174.936 Y129.199 E12.58139
G1 X174.39 Y129.768 E12.62064
G1 X173.789 Y130.279 E12.6599
G1 X173.139 Y130.726 E12.69915
G1 X172.448 Y131.106 E12.7384
G1 X171.479 Y131.497 E12.7904
G1 X171.061 Y131.634 E12.81229
G1 X170.3 Y131.841 E12.85154
G1 X169.522 Y131.971 E12.89079
G1 X168.63 Y132.021 E12.93525
G1 X146.428 Y131.997 E14.04015
G1 X145.64 Y131.956 E14.07941
G1 X144.86 Y131.836 E14.11869
G1 X144.514 Y131.746 E14.13648
G1 X144.508 Y139.018 E14.49837
G1 X144.467 Y139.806 E14.53764
G1 X144.347 Y140.585 E14.57687
G1 X144.149 Y141.349 E14.61614
G1 X143.874 Y142.088 E14.65539
G1 X143.526 Y142.796 E14.69465
G1 X143.108 Y143.465 E14.7339
G1 X142.625 Y144.088 E14.77313
G1 X142.08 Y144.659 E14.81242
G1 X141.481 Y145.172 E14.85166
G1 X141.096 Y145.45 E14.8753
G1 X137.813 Y147.678 E15.07275
G1 X137.436 Y147.919 E15.09501
G1 X134.409 Y149.728 E15.2705
G1 X134.012 Y149.95 E15.29314
G1 X131.033 Y151.502 E15.4603
G1 X130.599 Y151.711 E15.48428
G1 X127.715 Y152.993 E15.64134
G1 X127.228 Y153.19 E15.66749
G1 X124.433 Y154.213 E15.8156
G1 X123.918 Y154.382 E15.84258
G1 X121.241 Y155.155 E15.98124
G1 X120.674 Y155.295 E16.01031
G1 X118.066 Y155.84 E16.1429
G1 X117.417 Y155.948 E16.17564
G1 X114.64 Y156.287 E16.31487
G1 X113.933 Y156.34 E16.35015
G1 X111.397 Y156.417 E16.47641
G1 X110.694 Y156.407 E16.5114
G1 X108.151 Y156.254 E16.63818
G1 X107.493 Y156.186 E16.6711
G1 X104.926 Y155.811 E16.80021
G1 X104.312 Y155.696 E16.83129
G1 X101.678 Y155.092 E16.96578
G1 X101.114 Y154.94 E16.99485
G1 X98.384 Y154.094 E17.13708
G1 X97.855 Y153.909 E17.16497
G1 X95.076 Y152.823 E17.31345
G1 X94.598 Y152.618 E17.33934
G1 X91.743 Y151.276 E17.49633
G1 X91.283 Y151.041 E17.52204
G1 X88.421 Y149.456 E17.68485
G1 X88.01 Y149.211 E17.70866
G1 X85.136 Y147.38 E17.87825
G1 X84.761 Y147.125 E17.90082
G1 X82.261 Y145.319 E18.0543
G1 X81.645 Y144.826 E18.09356
G1 X81.083 Y144.272 E18.13283
G1 X80.58 Y143.665 E18.17207
G1 X80.141 Y143.01 E18.21131
G1 X79.771 Y142.313 E18.25058
G1 X79.473 Y141.583 E18.28982
G1 X79.25 Y140.826 E18.32909
G1 X79.106 Y140.051 E18.36832
G1 X79.036 Y139.018 E18.41984
G1 X78.992 Y81.045 E21.3049
G1 X79.031 Y80.257 E21.34416
G1 X79.15 Y79.477 E21.38343
G1 X79.348 Y78.714 E21.42266
G1 X79.621 Y77.974 E21.46191
G1 X79.968 Y77.266 E21.50115
G1 X80.385 Y76.596 E21.54042
G1 X80.868 Y75.972 E21.57969
G1 X81.271 Y75.537 E21.6092
G0 F2700 X81.553 Y75.819
G1 F1200 X81.67 Y75.702 E21.61744
G1 X82.241 Y75.188 E21.65567
G1 X82.862 Y74.736 E21.69389
G1 X83.527 Y74.351 E21.73213
G1 X84.228 Y74.037 E21.77036
G1 X84.958 Y73.797 E21.8086
G1 X85.709 Y73.635 E21.84683
G1 X86.472 Y73.552 E21.88503
G1 X86.887 Y73.54 E21.90569
G1 X89.653 Y73.539 E22.04334
G1 X90.421 Y73.579 E22.08161
G1 X91.179 Y73.698 E22.1198
G1 X91.922 Y73.895 E22.15805
G1 X92.64 Y74.169 E22.1963
G1 X93.325 Y74.516 E22.23451
G1 X93.971 Y74.932 E22.27275
G1 X94.57 Y75.412 E22.31095
G1 X94.876 Y75.701 E22.33189
G1 X94.993 Y75.818 E22.34013
G1 X95.507 Y76.389 E22.37836
G1 X95.959 Y77.01 E22.41658
G1 X96.344 Y77.675 E22.45482
G1 X96.658 Y78.376 E22.49305
G1 X96.898 Y79.106 E22.53129
G1 X97.06 Y79.857 E22.56953
G1 X97.143 Y80.62 E22.60772
G1 X97.155 Y81.038 E22.62853
G1 X97.155 Y122.714 E24.70256
G1 X97.21 Y122.699 E24.70539
G1 X100.678 Y121.859 E24.88297
G1 X101.092 Y121.772 E24.90402
G1 X104.241 Y121.198 E25.06332
G1 X104.719 Y121.127 E25.08737
G1 X107.613 Y120.793 E25.23234
G1 X108.136 Y120.751 E25.25845
G1 X110.828 Y120.633 E25.39255
G1 X111.43 Y120.631 E25.42251
G1 X114.29 Y120.739 E25.56494
G1 X114.844 Y120.781 E25.59259
G1 X117.643 Y121.099 E25.73278
G1 X118.104 Y121.166 E25.75596
G1 X121.136 Y121.706 E25.90923
G1 X121.518 Y121.785 E25.92864
G1 X124.885 Y122.57 E26.10069
G1 X125.223 Y122.657 E26.11806
G1 X126.391 Y122.988 E26.17848
G1 X126.391 Y88.872 E27.87628
G1 X125.976 Y88.539 E27.90276
G1 X125.67 Y88.25 E27.9237
G1 X125.553 Y88.133 E27.93194
G1 X125.039 Y87.562 E27.97017
G1 X124.587 Y86.941 E28.00839
G1 X124.202 Y86.276 E28.04663
G1 X123.888 Y85.575 E28.08486
G1 X123.648 Y84.845 E28.1231
G1 X123.486 Y84.094 E28.16133
G1 X123.403 Y83.331 E28.19953
G1 X123.391 Y82.913 E28.22034
G1 X123.391 Y81.049 E28.3131
G1 X123.431 Y80.282 E28.35133
G1 X123.55 Y79.523 E28.38956
G1 X123.748 Y78.781 E28.42778
G1 X124.022 Y78.063 E28.46602
G1 X124.369 Y77.377 E28.50428
G1 X124.785 Y76.732 E28.54248
G1 X125.266 Y76.133 E28.58071
G1 X125.553 Y75.829 E28.60151
G1 X125.67 Y75.712 E28.60975
G1 X126.241 Y75.198 E28.64798
G1 X126.862 Y74.746 E28.6862
G1 X127.527 Y74.361 E28.72444
G1 X128.228 Y74.047 E28.76267
G1 X128.958 Y73.807 E28.80091
G1 X129.709 Y73.645 E28.83914
G1 X130.472 Y73.562 E28.87734
G1 X130.889 Y73.55 E28.8981
G1 X136.655 Y73.549 E29.18505
G1 X137.422 Y73.589 E29.22327
G1 X138.181 Y73.708 E29.2615
G1 X138.923 Y73.906 E29.29972
G1 X138.934 Y73.91 E29.3003
G1 X139.171 Y73.29 E29.33334
G1 X139.518 Y72.605 E29.37155
G1 X140.036 Y71.823 E29.41823
G1 X140.336 Y71.427 E29.44295
G1 X140.831 Y70.84 E29.48117
G1 X141.384 Y70.307 E29.51939
G1 X141.99 Y69.835 E29.55761
G1 X142.642 Y69.428 E29.59586
G1 X143.093 Y69.198 E29.62106
G1 X143.309 Y69.097 E29.63293
G1 X144.021 Y68.808 E29.67117
G1 X144.759 Y68.595 E29.70939
G1 X145.515 Y68.46 E29.74761
G1 X146.428 Y68.402 E29.79314
G1 X168.629 Y68.377 E30.89798
G1 X169.396 Y68.416 E30.9362
G1 X170.185 Y68.541 E30.97596
G1 X170.474 Y68.603 E30.99067
G1 X171.216 Y68.803 E31.02891
G1 X171.933 Y69.079 E31.06714
G1 X172.617 Y69.428 E31.10536
G1 X173.471 Y70.004 E31.15662
G1 X173.759 Y70.229 E31.17481
G1 X174.339 Y70.733 E31.21305
G1 X174.863 Y71.294 E31.25125
G1 X175.326 Y71.907 E31.28948
G1 X175.705 Y72.531 E31.32581
G1 X175.829 Y72.76 E31.33877
G1 X176.16 Y73.454 E31.37704
G1 X176.416 Y74.178 E31.41525
G1 X176.595 Y74.925 E31.45348
G1 X176.696 Y75.686 E31.49168
G1 X176.72 Y76.27 E31.52077
G1 X176.753 Y123.5 E33.8712
G1 X176.714 Y124.267 E33.90942
G1 X176.538 Y125.275 E33.96034
G1 X176.457 Y125.603 E33.97715
G1 X176.234 Y126.338 E34.01538
G1 X175.936 Y127.046 E34.0536
G1 X175.566 Y127.719 E34.09182
G1 X175.128 Y128.351 E34.13009
G1 X174.868 Y128.668 E34.15049
G1 X174.634 Y128.938 E34.16827
G1 X174.102 Y129.491 E34.20646
G1 X173.515 Y129.986 E34.24467
G1 X172.879 Y130.418 E34.28294
G1 X172.202 Y130.781 E34.32116
G1 X171.355 Y131.118 E34.36653
G1 X170.937 Y131.255 E34.38842
G1 X170.196 Y131.456 E34.42663
G1 X169.437 Y131.579 E34.46489
G1 X168.63 Y131.622 E34.50511
G1 X146.428 Y131.598 E35.61001
G1 X145.661 Y131.557 E35.64823
G1 X144.902 Y131.437 E35.68647
G1 X144.16 Y131.238 E35.7247
G1 X144.115 Y131.22 E35.72711
G1 X144.109 Y139.018 E36.11519
G1 X144.068 Y139.785 E36.15341
G1 X143.948 Y140.544 E36.19165
G1 X143.75 Y141.286 E36.22987
G1 X143.476 Y142.004 E36.26811
G1 X143.128 Y142.689 E36.30635
G1 X142.711 Y143.334 E36.34457
G1 X142.23 Y143.933 E36.3828
G1 X141.689 Y144.478 E36.42102
G1 X140.872 Y145.12 E36.47273
G1 X137.589 Y147.348 E36.67018
G1 X137.231 Y147.577 E36.69133
G1 X134.204 Y149.386 E36.86682
G1 X133.828 Y149.596 E36.88825
G1 X130.849 Y151.148 E37.05542
G1 X130.437 Y151.347 E37.07819
G1 X127.553 Y152.629 E37.23525
G1 X127.091 Y152.815 E37.26004
G1 X124.296 Y153.838 E37.40816
G1 X123.807 Y153.998 E37.43376
G1 X121.13 Y154.771 E37.57243
G1 X120.592 Y154.905 E37.60002
G1 X117.984 Y155.45 E37.73261
G1 X117.369 Y155.552 E37.76363
G1 X114.592 Y155.891 E37.90286
G1 X113.921 Y155.942 E37.93635
G1 X111.385 Y156.019 E38.06261
G1 X110.718 Y156.009 E38.09581
G1 X108.175 Y155.856 E38.22259
G1 X107.551 Y155.791 E38.25381
G1 X104.984 Y155.416 E38.38292
G1 X104.401 Y155.307 E38.41243
G1 X101.767 Y154.703 E38.54692
G1 X101.232 Y154.559 E38.57449
G1 X98.502 Y153.713 E38.71672
G1 X98 Y153.538 E38.74318
G1 X95.221 Y152.452 E38.89166
G1 X94.768 Y152.257 E38.91621
G1 X91.913 Y150.915 E39.0732
G1 X91.477 Y150.692 E39.09757
G1 X88.615 Y149.107 E39.26038
G1 X88.225 Y148.875 E39.28297
G1 X85.351 Y147.044 E39.45255
G1 X84.994 Y146.802 E39.47402
G1 X82.494 Y144.996 E39.6275
G1 X81.896 Y144.514 E39.66572
G1 X81.351 Y143.973 E39.70394
G1 X80.865 Y143.378 E39.74217
G1 X80.443 Y142.736 E39.7804
G1 X80.091 Y142.053 E39.81864
G1 X79.811 Y141.338 E39.85685
G1 X79.607 Y140.597 E39.8951
G1 X79.481 Y139.839 E39.93334
G1 X79.435 Y139.018 E39.97426
G1 X79.391 Y81.045 E42.85932
G1 X79.43 Y80.277 E42.89759
G1 X79.549 Y79.518 E42.93582
G1 X79.746 Y78.776 E42.97403
G1 X80.02 Y78.058 E43.01227
G1 X80.366 Y77.372 E43.05051
G1 X80.782 Y76.726 E43.08874
G1 X81.262 Y76.127 E43.12694
G1 X81.553 Y75.819 E43.14803
G0 F2700 X81.952 Y75.984
G1 F1200 X82.508 Y75.485 E43.18521
G1 X83.114 Y75.048 E43.22239
G1 X83.763 Y74.678 E43.25957
G1 X84.448 Y74.38 E43.29675
G1 X85.161 Y74.156 E43.33394
G1 X85.894 Y74.01 E43.37113
G1 X86.887 Y73.939 E43.42068
G1 X89.653 Y73.938 E43.55833
G1 X90.4 Y73.978 E43.59556
G1 X91.137 Y74.097 E43.63271
G1 X91.858 Y74.294 E43.6699
G1 X92.553 Y74.567 E43.70706
G1 X93.215 Y74.913 E43.74424
G1 X93.837 Y75.328 E43.78145
G1 X94.594 Y75.983 E43.83127
G1 X94.711 Y76.1 E43.8395
G1 X95.21 Y76.656 E43.87668
G1 X95.647 Y77.262 E43.91386
G1 X96.017 Y77.911 E43.95104
G1 X96.315 Y78.596 E43.98821
G1 X96.539 Y79.309 E44.02541
G1 X96.685 Y80.042 E44.0626
G1 X96.756 Y81.038 E44.11229
G1 X96.756 Y123.239 E46.21245
G1 X96.989 Y123.171 E46.22452
G1 X97.304 Y123.087 E46.24075
G1 X100.772 Y122.247 E46.41833
G1 X101.164 Y122.164 E46.43827
G1 X104.313 Y121.59 E46.59756
G1 X104.764 Y121.523 E46.62025
G1 X107.658 Y121.189 E46.76523
G1 X108.153 Y121.15 E46.78994
G1 X110.845 Y121.032 E46.92404
G1 X111.415 Y121.03 E46.9524
G1 X114.275 Y121.138 E47.09483
G1 X114.799 Y121.178 E47.12099
G1 X117.598 Y121.496 E47.26118
G1 X118.034 Y121.559 E47.2831
G1 X121.066 Y122.099 E47.43636
G1 X121.428 Y122.173 E47.45475
G1 X124.795 Y122.958 E47.6268
G1 X125.114 Y123.041 E47.64321
G1 X126.79 Y123.516 E47.7299
G1 X126.79 Y88.677 E49.46368
G1 X126.709 Y88.623 E49.46852
G1 X125.952 Y87.968 E49.51834
G1 X125.835 Y87.851 E49.52657
G1 X125.336 Y87.295 E49.56375
G1 X124.899 Y86.689 E49.60094
G1 X124.529 Y86.04 E49.63811
G1 X124.231 Y85.355 E49.67529
G1 X124.007 Y84.642 E49.71248
G1 X123.861 Y83.909 E49.74968
G1 X123.79 Y82.913 E49.79937
G1 X123.79 Y81.049 E49.89213
G1 X123.83 Y80.303 E49.92931
G1 X123.949 Y79.565 E49.96651
G1 X124.147 Y78.845 E50.00367
G1 X124.42 Y78.149 E50.04088
G1 X124.767 Y77.487 E50.07807
G1 X125.182 Y76.866 E50.11524
G1 X125.835 Y76.111 E50.16492
G1 X125.952 Y75.994 E50.17316
G1 X126.508 Y75.495 E50.21033
G1 X127.114 Y75.058 E50.24752
G1 X127.763 Y74.688 E50.28469
G1 X128.448 Y74.39 E50.32187
G1 X129.161 Y74.166 E50.35906
G1 X129.894 Y74.02 E50.39626
G1 X130.889 Y73.949 E50.4459
G1 X136.655 Y73.948 E50.73285
G1 X137.401 Y73.988 E50.77002
G1 X138.138 Y74.107 E50.80718
G1 X138.859 Y74.305 E50.84439
G1 X139.195 Y74.437 E50.86235
G1 X139.295 Y74.072 E50.88119
G1 X139.569 Y73.377 E50.91836
G1 X139.916 Y72.715 E50.95556
G1 X140.354 Y72.064 E50.99461
G1 X140.654 Y71.668 E51.01933
G1 X141.136 Y71.098 E51.05648
G1 X141.677 Y70.582 E51.09369
G1 X142.269 Y70.127 E51.13084
G1 X142.907 Y69.738 E51.16803
G1 X143.262 Y69.559 E51.18781
G1 X143.478 Y69.458 E51.19968
G1 X144.171 Y69.179 E51.23686
G1 X144.89 Y68.974 E51.27407
G1 X145.626 Y68.848 E51.31123
G1 X146.428 Y68.801 E51.35121
G1 X168.629 Y68.776 E52.45605
G1 X169.375 Y68.815 E52.49323
G1 X170.102 Y68.931 E52.52986
G1 X170.391 Y68.993 E52.54457
G1 X171.112 Y69.189 E52.58176
G1 X171.808 Y69.46 E52.61893
G1 X172.471 Y69.805 E52.65612
G1 X173.225 Y70.318 E52.7015
G1 X173.513 Y70.543 E52.71969
G1 X174.076 Y71.034 E52.75687
G1 X174.584 Y71.582 E52.79406
G1 X175.03 Y72.182 E52.83126
G1 X175.355 Y72.721 E52.86258
G1 X175.479 Y72.95 E52.87554
G1 X175.799 Y73.625 E52.91272
G1 X176.045 Y74.331 E52.94992
G1 X176.214 Y75.058 E52.98707
G1 X176.305 Y75.8 E53.02427
G1 X176.321 Y76.27 E53.04767
G1 X176.354 Y123.5 E55.3981
G1 X176.315 Y124.246 E55.43527
G1 X176.15 Y125.179 E55.48243
G1 X176.069 Y125.507 E55.49924
G1 X175.852 Y126.222 E55.53642
G1 X175.559 Y126.909 E55.57359
G1 X175.194 Y127.561 E55.61078
G1 X174.567 Y128.406 E55.66314
G1 X174.333 Y128.676 E55.68092
G1 X173.814 Y129.214 E55.71812
G1 X173.241 Y129.693 E55.75529
G1 X172.62 Y130.108 E55.79246
G1 X171.958 Y130.455 E55.82966
G1 X171.231 Y130.739 E55.8685
G1 X170.813 Y130.876 E55.89039
G1 X170.091 Y131.07 E55.9276
G1 X169.353 Y131.186 E55.96477
G1 X168.63 Y131.223 E56.0008
